X:1
T:Title
%%score { 1 | 2 }
L:1/8
M:6/8
K:Db
V:1 treble nm="Grand Piano"
V:2 bass 
V:1
 z3 z2[Q:1/4=100] D | F2 F F2 F | F3 D2 F | [FA]2 [FA] [FA]2 [FA] |[M:5/8] [FA]-[FA]- [FA]3 | %5
[M:1/8] [FA] |[M:3/4] [Ad]2 [Ad] [Ad]2 [Ad] | [Bd]3 B2 B | A2 A [CA]2 [CG] | F4- FD | F2 F F2 F | %11
 F3 D2 F | [EA]2 [EA] [EA]2 [EA] | [EA]4- [EA][EA] | [Dd]2 [Fd] [Fd]2 [Fd] | [Gd]3 [DGB]2 [DGB] | %16
 [DFA]2 [DFA] [CGB]2 [EGc] |[M:5/8] [Fd]-[Fd]- [Fd]3 |[M:1/8] [FA] |[M:3/4] [FA]2 [FA] [FA]2 [FA] | %20
 B3 B BB | [FA]2 [FA] [Ad]2 [Ad] |[M:5/8] [Ae]-[Ae]- [Ae]3 |[M:1/8] [Ge] | %24
[M:3/4] [Af]2 [Fd] [GA]2 A | B2 B e2 e | d2 dc Bc |[M:5/8] [Fd]-[Fd]- [Fd]3 |] %28
V:2
 z3 z2 [D,F,] | [D,A,D]2 [D,A,D] [D,A,D]2 [D,A,D] | [D,A,D]3 [D,F,]2 [D,A,D] | %3
 [D,D]2 [D,D] [D,D]2 [D,D] |[M:5/8] [D,D]-[D,D]- [D,D]3 |[M:1/8] [D,D] | %6
[M:3/4] [F,D]2 [F,D] [F,D]2 [F,D] | [G,D]3[K:treble] [G,DG]2 [G,DG] | %8
 [A,DF]2 [A,F][K:bass] [A,,A,]2 [A,,A,] | [D,A,D]4- [D,A,D][D,F,] | %10
 [D,A,D]2 [D,A,D] [D,A,D]2 [D,A,D] | [D,A,D]3 [D,F,]2 [D,A,D] | [C,A,]2 [C,A,] [C,A,]2 [C,A,] | %13
 [C,A,]4- [C,A,][C,A,] | [B,,B,]2 [B,,B,] [B,,B,]2 [B,,B,] | [G,,B,]3 [G,,G,]2 [G,,G,] | %16
 [A,,A,]2 [A,,A,] [A,,A,]2 [A,,A,] |[M:5/8] [D,D]-[D,D]- [D,D]3 |[M:1/8] [D,D] | %19
[M:3/4] [D,D]2 [D,D] [D,D]2 [D,D] | [G,DG]3 [G,DG] [G,DG][G,DG] | [D,D]2 [D,D] [F,D]2 [F,D] | %22
[M:5/8] [A,C]-[A,C]- [A,C]3 |[M:1/8] [A,C] |[M:3/4] [D,D]2 [D,D] [E,C]2 [F,D] | %25
 [G,DG]2 [G,DG] [G,B,G]2 [G,B,G] | [A,F]2 [A,DF] [A,EG]2 [A,EG] | %27
[M:5/8][K:bass] [D,D]-[D,D]- [D,D]3 |] %28

